X:1
T: Caledonian Laddies
C:
R:Reel
Q: 232
K:D
M:4/4
L:1/8
FE|:D3E FE FA|BA Bd e2 f2|dc BA GB FA|G2 E2 EG FE|
D3E FE FA|BA Bd e2 f2|dc BA GB EG|F2 D2 D2 de|
f2 f2 gf ed|cd ec A2 Bc|e2 B2 Bc de|f2 B2 B2 d2|
a3b af ed|gf ge fe fd|ed cB AB de|f2 d2 d2:|
